src/assets/icons/about-brand-card2.svg

<svg width="291" height="140" viewBox="0 0 291 140" fill="none" xmlns="http://www.w3.org/2000/svg">
<path d="M151.93 28H132V121.59H151.93V28Z" fill="url(#paint0_linear_405_14250)"/>
<path d="M129.1 125.15C141.902 125.15 152.28 114.915 152.28 102.29C152.28 89.6647 141.902 79.43 129.1 79.43C116.298 79.43 105.92 89.6647 105.92 102.29C105.92 114.915 116.298 125.15 129.1 125.15Z" fill="url(#paint1_linear_405_14250)"/>
<path d="M200.02 122.77C211.491 122.77 220.79 113.601 220.79 102.29C220.79 90.9792 211.491 81.81 200.02 81.81C188.549 81.81 179.25 90.9792 179.25 102.29C179.25 113.601 188.549 122.77 200.02 122.77Z" fill="url(#paint2_linear_405_14250)"/>
<path d="M165.76 100.56C174.729 100.56 182 93.3921 182 84.55C182 75.7079 174.729 68.54 165.76 68.54C156.791 68.54 149.52 75.7079 149.52 84.55C149.52 93.3921 156.791 100.56 165.76 100.56Z" fill="url(#paint3_linear_405_14250)"/>
<path d="M136.17 85.99C142.416 85.99 147.48 80.998 147.48 74.84C147.48 68.682 142.416 63.69 136.17 63.69C129.924 63.69 124.86 68.682 124.86 74.84C124.86 80.998 129.924 85.99 136.17 85.99Z" fill="url(#paint4_linear_405_14250)"/>
<path d="M165.02 73.24C169.289 73.24 172.75 69.8284 172.75 65.62C172.75 61.4116 169.289 58 165.02 58C160.751 58 157.29 61.4116 157.29 65.62C157.29 69.8284 160.751 73.24 165.02 73.24Z" fill="url(#paint5_linear_405_14250)"/>
<path d="M151.27 97.88C158.836 97.88 164.97 91.8314 164.97 84.37C164.97 76.9086 158.836 70.86 151.27 70.86C143.704 70.86 137.57 76.9086 137.57 84.37C137.57 91.8314 143.704 97.88 151.27 97.88Z" fill="url(#paint6_linear_405_14250)"/>
<path d="M41.89 177.74C65.0252 177.74 83.78 159.249 83.78 136.44C83.78 113.631 65.0252 95.14 41.89 95.14C18.7548 95.14 0 113.631 0 136.44C0 159.249 18.7548 177.74 41.89 177.74Z" fill="url(#paint7_linear_405_14250)"/>
<path d="M92.18 143.74C109.527 143.74 123.59 129.879 123.59 112.78C123.59 95.6813 109.527 81.82 92.18 81.82C74.8328 81.82 60.77 95.6813 60.77 112.78C60.77 129.879 74.8328 143.74 92.18 143.74Z" fill="url(#paint8_linear_405_14250)"/>
<path d="M245.78 177.62C270.296 177.62 290.17 158.024 290.17 133.85C290.17 109.677 270.296 90.08 245.78 90.08C221.264 90.08 201.39 109.677 201.39 133.85C201.39 158.024 221.264 177.62 245.78 177.62Z" fill="url(#paint9_linear_405_14250)"/>
<path d="M135.69 154.56C153.037 154.56 167.1 140.699 167.1 123.6C167.1 106.501 153.037 92.64 135.69 92.64C118.343 92.64 104.28 106.501 104.28 123.6C104.28 140.699 118.343 154.56 135.69 154.56Z" fill="url(#paint10_linear_405_14250)"/>
<path d="M173.43 154.55C192.926 154.55 208.73 138.97 208.73 119.75C208.73 100.53 192.926 84.95 173.43 84.95C153.934 84.95 138.13 100.53 138.13 119.75C138.13 138.97 153.934 154.55 173.43 154.55Z" fill="url(#paint11_linear_405_14250)"/>
<path d="M150.483 107.566C150.511 106.808 150.385 106.052 150.112 105.343C149.839 104.635 149.424 103.988 148.893 103.441C148.362 102.895 147.725 102.461 147.021 102.164C146.317 101.867 145.559 101.714 144.794 101.714C144.029 101.714 143.271 101.867 142.567 102.164C141.862 102.461 141.226 102.895 140.695 103.441C140.164 103.988 139.749 104.635 139.476 105.343C139.203 106.052 139.077 106.808 139.105 107.566C139.105 107.566 138.371 120.902 144.798 128C151.217 120.902 150.483 107.566 150.483 107.566Z" fill="#BF0830"/>
<path d="M125.494 76.5746C125.494 76.5746 104.185 86.8971 112.626 117.326C112.626 117.326 117.132 102.03 131.593 98.063L125.494 76.5746Z" fill="#120283"/>
<path d="M165.426 76.5746C165.426 76.5746 186.735 86.8971 178.294 117.326C178.294 117.326 173.781 102.03 159.328 98.063L165.426 76.5746Z" fill="#120283"/>
<path d="M152.386 104.411H137.894C137.616 104.412 137.346 104.319 137.128 104.145C136.911 103.972 136.76 103.73 136.699 103.459L135.918 99.9526C135.877 99.7735 135.877 99.5873 135.918 99.4081C135.959 99.2289 136.04 99.0613 136.155 98.9178C136.27 98.7743 136.415 98.6587 136.581 98.5796C136.747 98.5006 136.929 98.4601 137.113 98.4612H153.167C153.351 98.4601 153.532 98.5006 153.698 98.5796C153.864 98.6587 154.01 98.7743 154.125 98.9178C154.24 99.0613 154.321 99.2289 154.362 99.4081C154.403 99.5873 154.403 99.7735 154.361 99.9526L153.581 103.459C153.52 103.73 153.369 103.972 153.151 104.145C152.934 104.319 152.664 104.412 152.386 104.411Z" fill="#1A2578"/>
<path d="M124.229 68.3525C124.229 68.3525 126.455 88.7634 133.326 101.694C140.968 98.5688 149.531 98.5688 157.172 101.694C157.172 101.694 165.051 90.7623 166.667 66.7362C167.597 52.8842 166.488 37.0646 161.896 23.4313H129.843C125.58 34.5347 122.543 49.4486 124.229 68.3525Z" fill="#DEE4FA"/>
<path d="M142.884 1.31806C137.267 7.86278 132.853 15.3491 129.844 23.4312H161.897C158.961 14.7093 154.604 6.88538 148.435 1.05257C148.058 0.696324 147.613 0.41988 147.126 0.239775C146.639 0.0596696 146.121 -0.0203836 145.603 0.00440308C145.085 0.0291898 144.577 0.158302 144.109 0.384024C143.642 0.609746 143.225 0.927436 142.884 1.31806Z" fill="#1A2578"/>
<path d="M144.891 67.3687C144.891 67.3687 135.06 89.7082 144.891 116.272C144.891 116.272 155.814 94.1043 144.891 67.3687Z" fill="#120283"/>
<path d="M145.804 59.0058C152.635 59.0058 158.172 53.4683 158.172 46.6374C158.172 39.8065 152.635 34.269 145.804 34.269C138.973 34.269 133.436 39.8065 133.436 46.6374C133.436 53.4683 138.973 59.0058 145.804 59.0058Z" fill="#1A2578"/>
<path d="M154.168 48.6108C155.253 43.9929 152.388 39.3699 147.77 38.285C143.153 37.2002 138.53 40.0644 137.445 44.6823C136.36 49.3002 139.224 53.9233 143.842 55.0081C148.46 56.0929 153.083 53.2288 154.168 48.6108Z" fill="#BF0830"/>
<defs>
<linearGradient id="paint0_linear_405_14250" x1="151.106" y1="30.0506" x2="119.723" y2="32.8727" gradientUnits="userSpaceOnUse">
<stop stop-color="#E3E7F6"/>
<stop offset="1" stop-color="#E3E7F6" stop-opacity="0"/>
</linearGradient>
<linearGradient id="paint1_linear_405_14250" x1="150.364" y1="80.4318" x2="88.174" y2="107.06" gradientUnits="userSpaceOnUse">
<stop stop-color="#E3E7F6"/>
<stop offset="1" stop-color="#E3E7F6" stop-opacity="0"/>
</linearGradient>
<linearGradient id="paint2_linear_405_14250" x1="219.073" y1="82.7075" x2="163.352" y2="106.57" gradientUnits="userSpaceOnUse">
<stop stop-color="#E3E7F6"/>
<stop offset="1" stop-color="#E3E7F6" stop-opacity="0"/>
</linearGradient>
<linearGradient id="paint3_linear_405_14250" x1="180.657" y1="69.2416" x2="137.092" y2="87.9022" gradientUnits="userSpaceOnUse">
<stop stop-color="#E3E7F6"/>
<stop offset="1" stop-color="#E3E7F6" stop-opacity="0"/>
</linearGradient>
<linearGradient id="paint4_linear_405_14250" x1="146.545" y1="64.1786" x2="116.205" y2="77.1743" gradientUnits="userSpaceOnUse">
<stop stop-color="#E3E7F6"/>
<stop offset="1" stop-color="#E3E7F6" stop-opacity="0"/>
</linearGradient>
<linearGradient id="paint5_linear_405_14250" x1="172.111" y1="58.3339" x2="151.375" y2="67.2166" gradientUnits="userSpaceOnUse">
<stop stop-color="#E3E7F6"/>
<stop offset="1" stop-color="#E3E7F6" stop-opacity="0"/>
</linearGradient>
<linearGradient id="paint6_linear_405_14250" x1="163.837" y1="71.452" x2="127.082" y2="87.1908" gradientUnits="userSpaceOnUse">
<stop stop-color="#E3E7F6"/>
<stop offset="1" stop-color="#E3E7F6" stop-opacity="0"/>
</linearGradient>
<linearGradient id="paint7_linear_405_14250" x1="80.3169" y1="96.9498" x2="-32.06" y2="145.081" gradientUnits="userSpaceOnUse">
<stop stop-color="#E3E7F6"/>
<stop offset="1" stop-color="#E3E7F6" stop-opacity="0"/>
</linearGradient>
<linearGradient id="paint8_linear_405_14250" x1="120.993" y1="83.1767" x2="36.7372" y2="119.273" gradientUnits="userSpaceOnUse">
<stop stop-color="#E3E7F6"/>
<stop offset="1" stop-color="#E3E7F6" stop-opacity="0"/>
</linearGradient>
<linearGradient id="paint9_linear_405_14250" x1="286.5" y1="91.9981" x2="167.412" y2="142.998" gradientUnits="userSpaceOnUse">
<stop stop-color="#E3E7F6"/>
<stop offset="1" stop-color="#E3E7F6" stop-opacity="0"/>
</linearGradient>
<linearGradient id="paint10_linear_405_14250" x1="164.503" y1="93.9967" x2="80.247" y2="130.093" gradientUnits="userSpaceOnUse">
<stop stop-color="#E3E7F6"/>
<stop offset="1" stop-color="#E3E7F6" stop-opacity="0"/>
</linearGradient>
<linearGradient id="paint11_linear_405_14250" x1="205.812" y1="86.475" x2="111.116" y2="127.037" gradientUnits="userSpaceOnUse">
<stop stop-color="#E3E7F6"/>
<stop offset="1" stop-color="#E3E7F6" stop-opacity="0"/>
</linearGradient>
</defs>
</svg>

<svg width="291" height="140" fill="none" xmlns="http://www.w3.org/2000/svg"><path d="M151.93 28H132v93.59h19.93V28Z" fill="url(#a)"/><path d="M129.1 125.15c12.802 0 23.18-10.235 23.18-22.86s-10.378-22.86-23.18-22.86-23.18 10.235-23.18 22.86 10.378 22.86 23.18 22.86Z" fill="url(#b)"/><path d="M200.02 122.77c11.471 0 20.77-9.169 20.77-20.48 0-11.31-9.299-20.48-20.77-20.48s-20.77 9.17-20.77 20.48c0 11.311 9.299 20.48 20.77 20.48Z" fill="url(#c)"/><path d="M165.76 100.56c8.969 0 16.24-7.168 16.24-16.01 0-8.842-7.271-16.01-16.24-16.01-8.969 0-16.24 7.168-16.24 16.01 0 8.842 7.271 16.01 16.24 16.01Z" fill="url(#d)"/><path d="M136.17 85.99c6.246 0 11.31-4.992 11.31-11.15s-5.064-11.15-11.31-11.15-11.31 4.992-11.31 11.15 5.064 11.15 11.31 11.15Z" fill="url(#e)"/><path d="M165.02 73.24c4.269 0 7.73-3.412 7.73-7.62S169.289 58 165.02 58s-7.73 3.412-7.73 7.62 3.461 7.62 7.73 7.62Z" fill="url(#f)"/><path d="M151.27 97.88c7.566 0 13.7-6.049 13.7-13.51 0-7.461-6.134-13.51-13.7-13.51-7.566 0-13.7 6.049-13.7 13.51 0 7.461 6.134 13.51 13.7 13.51Z" fill="url(#g)"/><path d="M41.89 177.74c23.135 0 41.89-18.491 41.89-41.3 0-22.809-18.755-41.3-41.89-41.3S0 113.631 0 136.44c0 22.809 18.755 41.3 41.89 41.3Z" fill="url(#h)"/><path d="M92.18 143.74c17.347 0 31.41-13.861 31.41-30.96s-14.063-30.96-31.41-30.96-31.41 13.861-31.41 30.96 14.063 30.96 31.41 30.96Z" fill="url(#i)"/><path d="M245.78 177.62c24.516 0 44.39-19.596 44.39-43.77 0-24.173-19.874-43.77-44.39-43.77-24.516 0-44.39 19.597-44.39 43.77 0 24.174 19.874 43.77 44.39 43.77Z" fill="url(#j)"/><path d="M135.69 154.56c17.347 0 31.41-13.861 31.41-30.96s-14.063-30.96-31.41-30.96-31.41 13.861-31.41 30.96 14.063 30.96 31.41 30.96Z" fill="url(#k)"/><path d="M173.43 154.55c19.496 0 35.3-15.58 35.3-34.8s-15.804-34.8-35.3-34.8c-19.496 0-35.3 15.58-35.3 34.8s15.804 34.8 35.3 34.8Z" fill="url(#l)"/><path d="M150.483 107.566a5.61 5.61 0 0 0-1.59-4.125 5.732 5.732 0 0 0-8.198 0 5.61 5.61 0 0 0-1.59 4.125s-.734 13.336 5.693 20.434c6.419-7.098 5.685-20.434 5.685-20.434Z" fill="#BF0830"/><path d="M125.494 76.575s-21.309 10.322-12.868 40.751c0 0 4.506-15.296 18.967-19.263l-6.099-21.488ZM165.426 76.575s21.309 10.322 12.868 40.751c0 0-4.513-15.296-18.966-19.263l6.098-21.488Z" fill="#120283"/><path d="M152.386 104.411h-14.492a1.22 1.22 0 0 1-1.195-.952l-.781-3.506a1.22 1.22 0 0 1 1.195-1.492h16.054a1.217 1.217 0 0 1 1.194 1.492l-.78 3.506a1.215 1.215 0 0 1-1.195.952Z" fill="#1A2578"/><path d="M124.229 68.353s2.226 20.41 9.097 33.341a31.497 31.497 0 0 1 23.846 0s7.879-10.932 9.495-34.958c.93-13.852-.179-29.671-4.771-43.305h-32.053c-4.263 11.104-7.3 26.018-5.614 44.922Z" fill="#DEE4FA"/><path d="M142.884 1.318a73.13 73.13 0 0 0-13.04 22.113h32.053c-2.936-8.722-7.293-16.546-13.462-22.378a3.85 3.85 0 0 0-2.832-1.049 3.864 3.864 0 0 0-2.719 1.314Z" fill="#1A2578"/><path d="M144.891 67.369s-9.831 22.34 0 48.903c0 0 10.923-22.168 0-48.903Z" fill="#120283"/><path d="M145.804 59.006c6.831 0 12.368-5.538 12.368-12.369 0-6.83-5.537-12.368-12.368-12.368s-12.368 5.538-12.368 12.368c0 6.831 5.537 12.369 12.368 12.369Z" fill="#1A2578"/><path d="M154.168 48.61a8.59 8.59 0 1 0-16.724-3.927 8.59 8.59 0 0 0 16.724 3.928Z" fill="#BF0830"/><defs><linearGradient id="a" x1="151.106" y1="30.051" x2="119.723" y2="32.873" gradientUnits="userSpaceOnUse"><stop stop-color="#E3E7F6"/><stop offset="1" stop-color="#E3E7F6" stop-opacity="0"/></linearGradient><linearGradient id="b" x1="150.364" y1="80.432" x2="88.174" y2="107.06" gradientUnits="userSpaceOnUse"><stop stop-color="#E3E7F6"/><stop offset="1" stop-color="#E3E7F6" stop-opacity="0"/></linearGradient><linearGradient id="c" x1="219.073" y1="82.707" x2="163.352" y2="106.57" gradientUnits="userSpaceOnUse"><stop stop-color="#E3E7F6"/><stop offset="1" stop-color="#E3E7F6" stop-opacity="0"/></linearGradient><linearGradient id="d" x1="180.657" y1="69.242" x2="137.092" y2="87.902" gradientUnits="userSpaceOnUse"><stop stop-color="#E3E7F6"/><stop offset="1" stop-color="#E3E7F6" stop-opacity="0"/></linearGradient><linearGradient id="e" x1="146.545" y1="64.179" x2="116.205" y2="77.174" gradientUnits="userSpaceOnUse"><stop stop-color="#E3E7F6"/><stop offset="1" stop-color="#E3E7F6" stop-opacity="0"/></linearGradient><linearGradient id="f" x1="172.111" y1="58.334" x2="151.375" y2="67.217" gradientUnits="userSpaceOnUse"><stop stop-color="#E3E7F6"/><stop offset="1" stop-color="#E3E7F6" stop-opacity="0"/></linearGradient><linearGradient id="g" x1="163.837" y1="71.452" x2="127.082" y2="87.191" gradientUnits="userSpaceOnUse"><stop stop-color="#E3E7F6"/><stop offset="1" stop-color="#E3E7F6" stop-opacity="0"/></linearGradient><linearGradient id="h" x1="80.317" y1="96.95" x2="-32.06" y2="145.081" gradientUnits="userSpaceOnUse"><stop stop-color="#E3E7F6"/><stop offset="1" stop-color="#E3E7F6" stop-opacity="0"/></linearGradient><linearGradient id="i" x1="120.993" y1="83.177" x2="36.737" y2="119.273" gradientUnits="userSpaceOnUse"><stop stop-color="#E3E7F6"/><stop offset="1" stop-color="#E3E7F6" stop-opacity="0"/></linearGradient><linearGradient id="j" x1="286.5" y1="91.998" x2="167.412" y2="142.998" gradientUnits="userSpaceOnUse"><stop stop-color="#E3E7F6"/><stop offset="1" stop-color="#E3E7F6" stop-opacity="0"/></linearGradient><linearGradient id="k" x1="164.503" y1="93.997" x2="80.247" y2="130.093" gradientUnits="userSpaceOnUse"><stop stop-color="#E3E7F6"/><stop offset="1" stop-color="#E3E7F6" stop-opacity="0"/></linearGradient><linearGradient id="l" x1="205.812" y1="86.475" x2="111.116" y2="127.037" gradientUnits="userSpaceOnUse"><stop stop-color="#E3E7F6"/><stop offset="1" stop-color="#E3E7F6" stop-opacity="0"/></linearGradient></defs></svg>
